assets/icons/24px/stroke/return-left-24px.svg

<svg width="24" height="24" viewBox="0 0 24 24" fill="none" xmlns="http://www.w3.org/2000/svg">
<path fill-rule="evenodd" clip-rule="evenodd" d="M19.0613 6.06431C18.5988 6.00213 17.9711 6 17 6H14.5C13.9477 6 13.5 5.55229 13.5 5C13.5 4.44772 13.9477 4 14.5 4L17.0658 4C17.9523 3.99995 18.7161 3.99991 19.3278 4.08215C19.9833 4.17028 20.6117 4.36902 21.1213 4.87868C21.631 5.38835 21.8297 6.0167 21.9179 6.67221C22.0001 7.28388 22.0001 8.0477 22 8.9342V9.06581C22.0001 9.95231 22.0001 10.7161 21.9179 11.3278C21.8297 11.9833 21.631 12.6117 21.1213 13.1213C20.6117 13.631 19.9833 13.8297 19.3278 13.9179C18.7161 14.0001 17.9523 14.0001 17.0658 14L4.63504 14L8.26822 18.3598C8.62179 18.7841 8.56446 19.4147 8.14018 19.7682C7.71591 20.1218 7.08534 20.0645 6.73178 19.6402L1.73178 13.6402C1.42274 13.2693 1.42274 12.7307 1.73178 12.3598L6.73178 6.35982C7.08534 5.93554 7.71591 5.87822 8.14018 6.23178C8.56446 6.58535 8.62179 7.21591 8.26822 7.64019L4.63504 12H17C17.9711 12 18.5988 11.9979 19.0613 11.9357C19.495 11.8774 19.631 11.7832 19.7071 11.7071C19.7832 11.631 19.8774 11.495 19.9357 11.0613C19.9979 10.5988 20 9.97108 20 9C20 8.02893 19.9979 7.40122 19.9357 6.93871C19.8774 6.50497 19.7832 6.36902 19.7071 6.2929C19.631 6.21677 19.495 6.12263 19.0613 6.06431Z" fill="white"/>
</svg>

<svg width="24" height="24" fill="none" xmlns="http://www.w3.org/2000/svg"><path fill-rule="evenodd" clip-rule="evenodd" d="M19.061 6.064C18.6 6.002 17.971 6 17 6h-2.5a1 1 0 1 1 0-2h2.566c.886 0 1.65 0 2.262.082.655.088 1.284.287 1.793.797.51.51.709 1.138.797 1.793C22 7.284 22 8.048 22 8.934v.132c0 .886 0 1.65-.082 2.262-.088.655-.287 1.284-.797 1.793-.51.51-1.138.709-1.793.797-.612.082-1.376.082-2.262.082H4.635l3.633 4.36a1 1 0 1 1-1.536 1.28l-5-6a1 1 0 0 1 0-1.28l5-6a1 1 0 1 1 1.536 1.28L4.635 12H17c.971 0 1.599-.002 2.061-.064.434-.059.57-.153.646-.229.076-.076.17-.212.229-.646C19.998 10.6 20 9.971 20 9c0-.971-.002-1.599-.064-2.061-.059-.434-.153-.57-.229-.646-.076-.076-.212-.17-.646-.229z" fill="#fff"/></svg>
